X: 3420
M: 2/4
L: 1/16
K: D
d3e defe | d2B2B2 (AB) | d3e defd | f2e2e2 (AB) |\
d2(de) defe | d2B2g2B2 | A2(AB) ABde | f2e2e2 :|
|: (fg) |\
a2b agfe | d2B2B2 (fg) | a3b afde | f2e2e2 (fg) |\
a^gab a=gfe | d2B2g2B2 | A2(AB) ABde | f2e2e2 :|


